public/svg/mail-blue.svg

<svg width="45" height="45" viewBox="0 0 45 45" fill="none" xmlns="http://www.w3.org/2000/svg">
<circle cx="22.5" cy="22.5" r="22.5" fill="#21558A"/>
<path d="M33.3 31.125H30.6V18.5469L22.5 23.9375L14.4 18.5469V31.125H11.7V13.875H13.32L22.5 19.9844L31.68 13.875H33.3M33.3 11H11.7C10.2015 11 9 12.2794 9 13.875V31.125C9 31.8875 9.28446 32.6188 9.79081 33.1579C10.2972 33.6971 10.9839 34 11.7 34H33.3C34.0161 34 34.7028 33.6971 35.2092 33.1579C35.7155 32.6188 36 31.8875 36 31.125V13.875C36 13.1125 35.7155 12.3812 35.2092 11.8421C34.7028 11.3029 34.0161 11 33.3 11Z" fill="white"/>
</svg>

<svg xmlns="http://www.w3.org/2000/svg" width="45" height="45" fill="none"><circle cx="22.5" cy="22.5" r="22.5" fill="#21558A"/><path fill="#fff" d="M33.3 31.125h-2.7V18.547l-8.1 5.39-8.1-5.39v12.578h-2.7v-17.25h1.62l9.18 6.11 9.18-6.11h1.62m0-2.875H11.7C10.202 11 9 12.28 9 13.875v17.25c0 .762.284 1.494.79 2.033A2.62 2.62 0 0 0 11.7 34h21.6a2.62 2.62 0 0 0 1.91-.842c.505-.54.79-1.27.79-2.033v-17.25c0-.762-.285-1.494-.79-2.033A2.62 2.62 0 0 0 33.3 11"/></svg>
